assets/images/icons/filters.svg

<svg fill="none" height="24" viewBox="0 0 24 24" width="24" xmlns="http://www.w3.org/2000/svg"><path d="m14 5c0-1.10457-.8954-2-2-2s-2 .89543-2 2m4 0c0 1.10457-.8954 2-2 2s-2-.89543-2-2m4 0h6m-10 0h-6m12 7h-12m4 7h12m-4-7c0 1.1046.8954 2 2 2s2-.8954 2-2-.8954-2-2-2-2 .8954-2 2zm-8 7c0-1.1046-.89543-2-2-2s-2 .8954-2 2 .89543 2 2 2 2-.8954 2-2z" stroke="#878181" stroke-linecap="round" stroke-width="1.5"/></svg>

<svg width="24" height="24" viewBox="0 0 24 24" fill="none" xmlns="http://www.w3.org/2000/svg">
<path d="M14 5C14 3.89543 13.1046 3 12 3C10.8954 3 10 3.89543 10 5M14 5C14 6.10457 13.1046 7 12 7C10.8954 7 10 6.10457 10 5M14 5H20M10 5H4M16 12H4M8 19H20M16 12C16 13.1046 16.8954 14 18 14C19.1046 14 20 13.1046 20 12C20 10.8954 19.1046 10 18 10C16.8954 10 16 10.8954 16 12ZM8 19C8 17.8954 7.10457 17 6 17C4.89543 17 4 17.8954 4 19C4 20.1046 4.89543 21 6 21C7.10457 21 8 20.1046 8 19Z" stroke="#878181" stroke-width="1.5" stroke-linecap="round"/>
</svg>
